!!!OTL: Die Muellertochter.
!!!OTL-incipit: ES WOHNT EIN MUELLER AN JENEM TEICH
!!!ARE: Europa, Mitteleuropa, Deutschland, Rhein
!!!SCT: Z1075
!!!TXL: @@DE
!!!YEM: Copyright 1995, estate of Helmut Schaffrath.
**kern	**text
*ICvox	*
*M3/4	*
*k[b-e-a-]	*
*E-:	*
!LO:TX:a:t=Rheiniſch.	!
{8g	Es
8g	wohnt
8a-	ein
=1	=1
4b-	Mül-
8b-	-ler
8ee-	an
8cc	je-
8a-	-nem
=2	=2
4b-	Teich,
8r}	.
{8g	der
8g	hat
8a-	'ne
=3	=3
4b-	Toch-
8b-	-ter
8ee-	und
8cc	die
8a-	war
=4	=4
4b-	reich,
8r}	.
{8g	der
8g	hat
8a-	'ne
=5	=5
8b-L	Toch-
8a-J	.
8.f	-ter,
16f	mein
16e-L	Mül-
16dJ	.
16e-L	-ler
16fJ	.
=6	=6
4.e-}	lauf!
{8g	der
8g	hat
8a-	'ne
=7	=7
8b-L	Toch-
8a-J	.
8.f	-ter
16f	und
8b-/	die
8b-/	war
=8	=8
4g	reich!
8r}	.
==	==
!!!AGN: Romanze, Ballade
!!!ONB: ESAC (Essen Associative Code) Database: ZUCCAL
!!!AMT: simple triple
!!!AIN: vox
!!!EED: Helmut Schaffrath
!!!EEV: 1.0
!!!GTL: II. Gau- Leuschen.
!!!URL-scan: https://www.digitale-sammlungen.de/de/view/bsb11160573?page=162
!!!ENC: Anna Maria Matuszewska
!!!EEV: 2025/03/02
*-	*-
